assets/images/system/icon/services/house-icon.svg

<svg width="70" height="70" viewBox="0 0 70 70" fill="none" xmlns="http://www.w3.org/2000/svg">
<path d="M58.3333 20.6892V5.83464H49.5833V11.9392L58.3333 20.6892ZM70 37.918L35 2.91797L0 37.918H8.75V67.0846H61.25V37.918H70ZM55.4167 61.2513H14.5833V31.3263L35 11.1663L55.4167 31.5538V61.2513ZM40.8333 58.3346H29.1667V40.8346H40.8333V58.3346Z" fill="#017113"/>
</svg>

<svg xmlns="http://www.w3.org/2000/svg" width="70" height="70" fill="none" xmlns:v="https://vecta.io/nano"><path d="M58.333 20.689V5.835h-8.75v6.105l8.75 8.75zM70 37.918l-35-35-35 35h8.75v29.167h52.5V37.918H70zM55.417 61.251H14.583V31.326L35 11.166l20.417 20.388v29.698zm-14.583-2.917H29.167v-17.5h11.667v17.5z" fill="#017113"/></svg>
